X:1
T:Title
%%score { ( 1 4 ) | ( 2 3 5 6 ) }
L:1/8
Q:1/4=92
M:4/4
K:Bb
V:1 treble nm="Grand Piano"
V:4 treble 
V:2 bass 
V:3 bass 
V:5 bass 
V:6 bass 
V:1
 [DB]>[DB] [DB][Ec] [DB] [B,DF]3 | [Gd]>[Ec] [DB][EG] [B,DF]4 | %2
w: Charles~H.~Gabriel * * * * *||
 [A,EF][A,EG][EA][Fc] F[FB][Fc][Fd] | [=Ec]2 [Ec]2[K:bass][K:treble] c4 | %4
w: ||
 [DB]>[DB] [DB][Ec] [DB] [B,DF]3 | [Fd]>[Ec] [DB][EG] [B,DF]4 | %6
w: ||
 [B,EG][CFA][B,FB][Fc] [Fd][Fe][Ff][GBe] | d2[K:bass] [Ec]2[K:treble] z4 | %8
w: ||
 z2 [Fd]2[K:bass][K:treble] z2 [Fd]2[K:bass] | z4 [Fe]4[K:bass] | %10
w: ||
 c[B,=Ec][CFc][B,Ec] [A,Fc][Fc][FB][Fc] | z4 [DF]4[K:bass] | %12
w: ||
 z2 [Fd]2[K:bass][K:treble] z2 [Fd]2[K:bass] | z4 [Ge]4[K:bass] | e[Fc][Fd][Fe] [Ff][FA][FB][Ge] | %15
w: |||
 d2[K:bass][K:treble] z2 [DB]4 |] %16
w: |
V:2
 [B,,F,]>[B,,F,] [B,,F,][B,,F,] .[B,,F,]2 D,F, | [B,,B,]>[B,,B,] [B,,B,][B,,B,] z F,D,B,, | %2
 C,C,[E,F,][E,A,] [D,B,][D,B,][C,A,][B,,B,] | z4 [F,A,]4 | %4
 [B,,F,]>[B,,F,] [B,,F,][B,,F,] .[B,,F,]2 D,F, | [B,,B,]>[B,,B,] [B,,B,][B,,B,] .B,,2 D,F, | %6
 E,C,D,[F,A,] [B,,B,][C,A,][D,B,][E,B,] | [F,B,F]2 .[G,,F,A,]2 [B,,B,]4 | %8
 [B,,B,]>[B,,B,] [B,,B,]2 [B,,B,]>[B,,B,] [B,,B,]2 | [B,,B,][B,,B,][E,A,][D,B,] [C,A,]4 | %10
 [F,,F,A,E][G,,G,][A,,A,][G,,G,] [F,,F,][E,A,][D,B,][C,A,] | %11
 [B,,B,]>[B,,B,] [B,,B,][B,,B,] [B,,B,]4 | [B,,B,]>[B,,B,] [B,,B,]2 [B,,B,]>[B,,B,] [B,,B,]2 | %13
 [B,F][_A,B,F][G,B,G][K:bass][F,B,] [E,B,]4 | [F,A,F][E,A,][D,B,][C,C] [B,,D][C,C][D,B,][E,B,] | %15
 z4 z B,3 |] %16
V:3
 z4 z B,,3 | z4 B,,4 | x8 | [C,B,]2 .[C,=E,B,]2 F2 D,C, | z4 z B,,3 | z4 z B,,3 | x8 | x8 | x8 | %9
 x8 | x8 | x8 | x8 | x3[K:bass] x5 | x8 | z4 z/ z/4 z/8 z/16 A,/16-A,/16 z/16 z/8 z/4 z/ z2 |] %16
V:4
 x8 | x8 | x8 | z D, z[K:bass] C,[K:treble] z E, _E2 | x8 | x8 | x8 | %7
 z[K:bass] F,, z A,,[K:treble] [DB]4 | [Fd]>[Fd] z[K:bass] F,,[K:treble] [Fd]>[Fd] z[K:bass] F,, | %9
 [Fd][Fd][Fc][Fd] z[K:bass] B,,A,,G,, | x8 | [Fd]>[Ec] [DB][EG] z[K:bass] C,D,E, | %12
 [Fd]>[Fd] z[K:bass] F,,[K:treble] [Fd]>[Fd] z[K:bass] F,, | ddd[_Ad] z[K:bass] C,D,E, | x8 | %15
 z[K:bass] F,,[K:treble] [Ec]2 .B,2 z2 |] %16
V:5
 x8 | x8 | x8 | x8 | x8 | x8 | x8 | x8 | x8 | x8 | x8 | x8 | x8 | x3[K:bass] x5 | x8 | %15
 [F,B,F]2 [F,A,]-[A,,F,A,] z2 B,,2 |] %16
V:6
 x8 | x8 | x8 | x8 | x8 | x8 | x8 | x8 | x8 | x8 | x8 | x8 | x8 | x3[K:bass] x5 | x8 | %15
 z2 .G,,2 B,,2 z2 |] %16

